flaticon/casino-gambling/poker-10.svg

<svg xmlns="http://www.w3.org/2000/svg" width="32" height="32" viewBox="0 0 24 24">
    <path d="M 19.601562 0 L 4.398438 0 C 3.71875 0 3.199219 0.519531 3.199219 1.199219 L 3.199219 22.800781 C 3.199219 23.480469 3.71875 24 4.398438 24 L 19.601562 24 C 20.28125 24 20.800781 23.480469 20.800781 22.800781 L 20.800781 1.199219 C 20.800781 0.519531 20.28125 0 19.601562 0 Z M 20 22.800781 C 20 23.039062 19.839844 23.199219 19.601562 23.199219 L 4.398438 23.199219 C 4.160156 23.199219 4 23.039062 4 22.800781 L 4 1.199219 C 4 0.960938 4.160156 0.800781 4.398438 0.800781 L 19.601562 0.800781 C 19.839844 0.800781 20 0.960938 20 1.199219 Z M 20 22.800781"/>
    <path d="M6.679688 14.398438L12 21.039062 17.320312 14.398438 12 7.761719zM12 19.761719L7.71875 14.398438 12 9.039062 16.28125 14.398438zM7.601562 5.601562C7.601562 5.125 7.386719 4.695312 7.054688 4.398438 7.386719 4.105469 7.601562 3.675781 7.601562 3.199219 7.601562 2.320312 6.878906 1.601562 6 1.601562 5.800781 1.601562 5.640625 1.640625 5.480469 1.679688 5.238281 1.761719 5.039062 1.921875 4.839844 2.121094 4.679688 2.28125 4.679688 2.519531 4.839844 2.679688 5 2.839844 5.238281 2.839844 5.398438 2.679688 5.519531 2.558594 5.640625 2.480469 5.71875 2.441406 5.800781 2.398438 5.921875 2.398438 6 2.398438 6.441406 2.398438 6.800781 2.761719 6.800781 3.199219 6.800781 3.640625 6.441406 4 6 4L5.601562 4C5.359375 4 5.199219 4.160156 5.199219 4.398438 5.199219 4.640625 5.359375 4.800781 5.601562 4.800781L6 4.800781C6.441406 4.800781 6.800781 5.160156 6.800781 5.601562 6.800781 6.039062 6.441406 6.398438 6 6.398438 5.71875 6.398438 5.519531 6.238281 5.398438 6.121094 5.238281 5.960938 5 5.960938 4.839844 6.121094 4.679688 6.28125 4.679688 6.519531 4.839844 6.679688 5.160156 7.039062 5.558594 7.199219 6 7.199219 6.878906 7.199219 7.601562 6.480469 7.601562 5.601562zM7.601562 5.601562"/>
</svg>

<svg xmlns="http://www.w3.org/2000/svg" width="32" height="32" viewBox="0 0 24 24">
    <path d="M19.602 0H4.398C3.718 0 3.2.52 3.2 1.2v21.6c0 .68.52 1.2 1.2 1.2h15.203c.68 0 1.199-.52 1.199-1.2V1.2c0-.68-.52-1.2-1.2-1.2zM20 22.8c0 .24-.16.4-.398.4H4.398c-.238 0-.398-.16-.398-.4V1.2c0-.24.16-.4.398-.4h15.204c.238 0 .398.16.398.4zm0 0"/>
    <path d="M6.68 14.398L12 21.04l5.32-6.64L12 7.761zM12 19.762l-4.281-5.364L12 9.04l4.281 5.36zm0 0M7.602 5.602c0-.477-.215-.907-.547-1.204.332-.293.547-.722.547-1.199 0-.879-.723-1.597-1.602-1.597-.2 0-.36.039-.52.078-.242.082-.44.242-.64.441a.385.385 0 0 0 0 .559c.16.16.398.16.558 0 .122-.121.243-.2.32-.239.083-.043.204-.043.282-.043A.802.802 0 0 1 6 4h-.398c-.243 0-.403.16-.403.398 0 .243.16.403.403.403H6c.441 0 .8.36.8.8 0 .438-.359.797-.8.797-.281 0-.48-.16-.602-.277a.385.385 0 0 0-.558 0 .385.385 0 0 0 0 .559c.32.36.719.52 1.16.52.879 0 1.602-.72 1.602-1.598zm0 0"/>
</svg>
